images/icons/S_DP_icon.svg

<svg width="55" height="55" viewBox="0 0 55 55" fill="none" xmlns="http://www.w3.org/2000/svg">
<rect width="55" height="55" rx="10" fill="#6589E6"/>
<path d="M14.4588 11.8442C13.9787 11.8442 13.5881 12.2347 13.5881 12.7149V21.3856C13.5881 21.8657 13.9787 22.2563 14.4588 22.2563H26.8353C27.3154 22.2563 27.7059 21.8657 27.7059 21.3856C27.7059 21.0766 27.7059 13.0245 27.7059 12.7149C27.7059 12.2347 27.3154 11.8442 26.8353 11.8442C26.6416 11.8442 14.5822 11.8442 14.4588 11.8442ZM14.5873 12.8434H16.0003V14.045H14.5873V12.8434ZM26.7067 21.2572H14.5873V15.0442H26.7067V21.2572ZM26.7067 14.045H16.9995V12.8434H26.7067V14.045Z" fill="white"/>
<path d="M29.192 26.4898C30.351 26.4898 31.2941 25.5398 31.2941 24.3721V23.9467C31.2941 23.479 30.9151 23.0984 30.4492 23.0984H29.0856C29.3883 22.6732 29.5641 22.1575 29.5641 21.6151V18.2146C29.5641 17.9386 29.3405 17.715 29.0645 17.715C28.7885 17.715 28.5649 17.9386 28.5649 18.2146V21.6151C28.5649 22.2806 28.1316 22.881 27.5033 23.0984H13.7907C13.1624 22.881 12.7292 22.2806 12.7292 21.6151V12.5679C12.7292 11.7029 13.4329 10.9992 14.2979 10.9992H26.9961C27.8611 10.9992 28.5648 11.7029 28.5648 12.5679V15.8831C28.5648 16.1591 28.7884 16.3827 29.0644 16.3827C29.3404 16.3827 29.564 16.1591 29.564 15.8831V12.5679C29.564 11.152 28.4121 10 26.9961 10H14.298C12.882 10 11.7301 11.152 11.7301 12.5679V21.6151C11.7301 22.1576 11.9059 22.6733 12.2086 23.0985H10.8449C10.379 23.0984 10 23.479 10 23.9467V24.3721C10 25.5398 10.943 26.4899 12.1021 26.4899H29.192V26.4898ZM10.9992 24.3721V24.0976H30.2948V24.3721C30.2948 24.9889 29.8001 25.4906 29.1919 25.4906H12.1021C11.494 25.4906 10.9992 24.9889 10.9992 24.3721Z" fill="white"/>
<path d="M43.2622 40.6086H41.8986C42.2013 40.1834 42.3771 39.6677 42.3771 39.1252V30.078C42.3771 28.6621 41.2251 27.5101 39.8092 27.5101H35.2919C35.0159 27.5101 34.7923 27.7337 34.7923 28.0097C34.7923 28.2857 35.0159 28.5093 35.2919 28.5093H39.8092C40.6741 28.5093 41.3779 29.213 41.3779 30.078V39.1252C41.3779 39.7909 40.9447 40.3913 40.3163 40.6086H26.6038C25.9754 40.3913 25.5423 39.7909 25.5423 39.1252V30.078C25.5423 29.213 26.2459 28.5093 27.111 28.5093H32.9605C33.2365 28.5093 33.4601 28.2857 33.4601 28.0097C33.4601 27.7337 33.2365 27.5101 32.9605 27.5101H27.111C25.695 27.5101 24.543 28.6621 24.543 30.078V39.1252C24.543 39.6677 24.7188 40.1834 25.0215 40.6086H23.6579C23.192 40.6086 22.813 40.9891 22.813 41.4569V41.8822C22.813 43.0499 23.756 44 24.9151 44H42.005C43.164 44 44.1071 43.0499 44.1071 41.8822V41.4569C44.1071 40.9891 43.7281 40.6086 43.2622 40.6086ZM43.1079 41.8822C43.1079 42.499 42.6131 43.0008 42.005 43.0008H24.9151C24.307 43.0008 23.8122 42.499 23.8122 41.8822V41.6078H43.1078V41.8822H43.1079Z" fill="white"/>
<path d="M27.2718 29.3543C26.7917 29.3543 26.4011 29.7448 26.4011 30.225V38.8957C26.4011 39.3758 26.7917 39.7664 27.2718 39.7664H39.6483C40.1284 39.7664 40.5189 39.3758 40.5189 38.8957C40.5189 38.5867 40.5189 30.5346 40.5189 30.225C40.5189 29.7448 40.1284 29.3543 39.6483 29.3543C39.4546 29.3543 27.3952 29.3543 27.2718 29.3543ZM27.4004 30.3535H28.8134V31.5551H27.4004V30.3535ZM39.5198 38.7673H27.4004V32.5543H39.5198V38.7673ZM29.8126 30.3535H39.5198V31.5551H29.8126V30.3535Z" fill="white"/>
<path d="M40.0195 25.8258C40.2954 25.8258 40.5191 25.6022 40.5191 25.3262V14.4224C41.4577 14.1967 42.1577 13.3507 42.1577 12.3438C42.1577 11.1648 41.1985 10.2056 40.0195 10.2056C39.0126 10.2056 38.1666 10.9055 37.9409 11.8442H31.7477C31.4717 11.8442 31.248 12.0678 31.248 12.3438C31.248 12.6198 31.4717 12.8434 31.7477 12.8434H37.9409C38.128 13.6216 38.7416 14.2352 39.5198 14.4224V25.3262C39.5198 25.6022 39.7435 25.8258 40.0195 25.8258ZM38.8805 12.3438C38.8805 11.7158 39.3915 11.2049 40.0195 11.2049C40.6475 11.2049 41.1584 11.7158 41.1584 12.3438C41.1584 12.9718 40.6475 13.4827 40.0195 13.4827C39.3915 13.4826 38.8805 12.9718 38.8805 12.3438Z" fill="white"/>
<path d="M14.4588 28.1795C14.1828 28.1795 13.9592 28.4031 13.9592 28.6791V37.1883C13.0205 37.414 12.3207 38.26 12.3207 39.2669C12.3207 40.4459 13.2798 41.4051 14.4588 41.4051C15.4657 41.4051 16.3117 40.7052 16.5374 39.7665H21.5579C21.8339 39.7665 22.0575 39.5429 22.0575 39.2669C22.0575 38.9909 21.8339 38.7673 21.5579 38.7673H16.5374C16.3503 37.989 15.7367 37.3754 14.9584 37.1883V28.6791C14.9584 28.4031 14.7347 28.1795 14.4588 28.1795ZM15.5977 39.2669C15.5977 39.8948 15.0867 40.4058 14.4588 40.4058C13.8308 40.4058 13.3198 39.8948 13.3198 39.2669C13.3198 38.6393 13.8301 38.1287 14.4574 38.128C14.4579 38.128 14.4583 38.1281 14.4587 38.1281C14.4591 38.1281 14.4596 38.128 14.46 38.128C15.0875 38.1287 15.5977 38.6393 15.5977 39.2669Z" fill="white"/>
</svg>

<?xml version="1.0" encoding="utf-8"?>
<!-- Generator: Adobe Illustrator 24.0.2, SVG Export Plug-In . SVG Version: 6.00 Build 0)  -->
<svg version="1.1" id="Layer_1" xmlns="http://www.w3.org/2000/svg" xmlns:xlink="http://www.w3.org/1999/xlink" x="0px" y="0px"
	 viewBox="0 0 55 55" style="enable-background:new 0 0 55 55;" xml:space="preserve">
<style type="text/css">
	.st0{fill:#6589E6;}
	.st1{fill:#FFFFFF;}
</style>
<path class="st0" d="M10,0h35c5.5,0,10,4.5,10,10v35c0,5.5-4.5,10-10,10H10C4.5,55,0,50.5,0,45V10C0,4.5,4.5,0,10,0z"/>
<path class="st1" d="M14.5,11.8c-0.5,0-0.9,0.4-0.9,0.9v8.7c0,0.5,0.4,0.9,0.9,0.9h12.4c0.5,0,0.9-0.4,0.9-0.9c0-0.3,0-8.4,0-8.7
	c0-0.5-0.4-0.9-0.9-0.9C26.6,11.8,14.6,11.8,14.5,11.8z M14.6,12.8H16V14h-1.4V12.8z M26.7,21.3H14.6V15h12.1V21.3z M26.7,14H17
	v-1.2h9.7V14z"/>
<path class="st1" d="M29.2,26.5c1.2,0,2.1-0.9,2.1-2.1v-0.4c0-0.5-0.4-0.8-0.8-0.8h-1.4c0.3-0.4,0.5-0.9,0.5-1.5v-3.4
	c0-0.3-0.2-0.5-0.5-0.5c-0.3,0-0.5,0.2-0.5,0.5v3.4c0,0.7-0.4,1.3-1.1,1.5H13.8c-0.6-0.2-1.1-0.8-1.1-1.5v-9c0-0.9,0.7-1.6,1.6-1.6
	H27c0.9,0,1.6,0.7,1.6,1.6v3.3c0,0.3,0.2,0.5,0.5,0.5c0.3,0,0.5-0.2,0.5-0.5v-3.3c0-1.4-1.2-2.6-2.6-2.6H14.3
	c-1.4,0-2.6,1.2-2.6,2.6v9c0,0.5,0.2,1.1,0.5,1.5h-1.4c-0.5,0-0.8,0.4-0.8,0.8v0.4c0,1.2,0.9,2.1,2.1,2.1L29.2,26.5L29.2,26.5z
	 M11,24.4v-0.3h19.3v0.3c0,0.6-0.5,1.1-1.1,1.1H12.1C11.5,25.5,11,25,11,24.4z"/>
<path class="st1" d="M43.3,40.6h-1.4c0.3-0.4,0.5-0.9,0.5-1.5v-9c0-1.4-1.2-2.6-2.6-2.6h-4.5c-0.3,0-0.5,0.2-0.5,0.5
	c0,0.3,0.2,0.5,0.5,0.5h4.5c0.9,0,1.6,0.7,1.6,1.6v9c0,0.7-0.4,1.3-1.1,1.5H26.6c-0.6-0.2-1.1-0.8-1.1-1.5v-9c0-0.9,0.7-1.6,1.6-1.6
	H33c0.3,0,0.5-0.2,0.5-0.5c0-0.3-0.2-0.5-0.5-0.5h-5.8c-1.4,0-2.6,1.2-2.6,2.6v9c0,0.5,0.2,1.1,0.5,1.5h-1.4c-0.5,0-0.8,0.4-0.8,0.8
	v0.4c0,1.2,0.9,2.1,2.1,2.1H42c1.2,0,2.1-1,2.1-2.1v-0.4C44.1,41,43.7,40.6,43.3,40.6z M43.1,41.9c0,0.6-0.5,1.1-1.1,1.1H24.9
	c-0.6,0-1.1-0.5-1.1-1.1v-0.3h19.3L43.1,41.9L43.1,41.9z"/>
<path class="st1" d="M27.3,29.4c-0.5,0-0.9,0.4-0.9,0.9v8.7c0,0.5,0.4,0.9,0.9,0.9h12.4c0.5,0,0.9-0.4,0.9-0.9c0-0.3,0-8.4,0-8.7
	c0-0.5-0.4-0.9-0.9-0.9C39.5,29.4,27.4,29.4,27.3,29.4z M27.4,30.4h1.4v1.2h-1.4V30.4z M39.5,38.8H27.4v-6.2h12.1V38.8z M29.8,30.4
	h9.7v1.2h-9.7V30.4z"/>
<path class="st1" d="M40,25.8c0.3,0,0.5-0.2,0.5-0.5V14.4c0.9-0.2,1.6-1.1,1.6-2.1c0-1.2-1-2.1-2.1-2.1c-1,0-1.9,0.7-2.1,1.6h-6.2
	c-0.3,0-0.5,0.2-0.5,0.5s0.2,0.5,0.5,0.5h6.2c0.2,0.8,0.8,1.4,1.6,1.6v10.9C39.5,25.6,39.7,25.8,40,25.8z M38.9,12.3
	c0-0.6,0.5-1.1,1.1-1.1c0.6,0,1.1,0.5,1.1,1.1c0,0.6-0.5,1.1-1.1,1.1C39.4,13.5,38.9,13,38.9,12.3z"/>
<path class="st1" d="M14.5,28.2c-0.3,0-0.5,0.2-0.5,0.5v8.5c-0.9,0.2-1.6,1.1-1.6,2.1c0,1.2,1,2.1,2.1,2.1c1,0,1.9-0.7,2.1-1.6h5
	c0.3,0,0.5-0.2,0.5-0.5s-0.2-0.5-0.5-0.5h-5c-0.2-0.8-0.8-1.4-1.6-1.6v-8.5C15,28.4,14.7,28.2,14.5,28.2z M15.6,39.3
	c0,0.6-0.5,1.1-1.1,1.1c-0.6,0-1.1-0.5-1.1-1.1c0-0.6,0.5-1.1,1.1-1.1c0,0,0,0,0,0c0,0,0,0,0,0C15.1,38.1,15.6,38.6,15.6,39.3z"/>
</svg>
